dist/img/car3_icon.svg

<svg width="59" height="41" viewBox="0 0 59 41" fill="none" xmlns="http://www.w3.org/2000/svg">
<path d="M58.1423 37.4742H35.0419V1H31.3945" stroke="black" stroke-width="1.5"/>
<path d="M35.0424 36.2583H30.1792" stroke="black" stroke-width="1.5"/>
<path d="M2.21533 28.9637V19.2373H14.3734L19.2366 24.1005H35.0421" stroke="black" stroke-width="1.5"/>
<path fill-rule="evenodd" clip-rule="evenodd" d="M10.726 35.0393C10.726 37.7262 8.54845 39.9049 5.86273 39.9061C3.17824 39.9086 0.999512 37.731 0.999512 35.0441C0.999512 32.3584 3.17702 30.1785 5.86273 30.1772C8.54845 30.176 10.726 32.3523 10.726 35.0393Z" stroke="black" stroke-width="1.5"/>
<path fill-rule="evenodd" clip-rule="evenodd" d="M30.1791 35.0393C30.1791 37.7262 28.0016 39.9049 25.3159 39.9061C22.6314 39.9086 20.4526 37.731 20.4526 35.0441C20.4526 32.3584 22.6301 30.1785 25.3159 30.1772C28.0016 30.176 30.1791 32.3523 30.1791 35.0393Z" stroke="black" stroke-width="1.5"/>
<path d="M31.563 24.6798C31.563 24.6798 30.1503 13.1576 21.5472 7.07861H9.51074V19.2367" stroke="black" stroke-width="1.5"/>
<path d="M20.4525 36.2583H10.7261" stroke="black" stroke-width="1.5"/>
<path d="M9.51022 7.07909H7.07861" stroke="black" stroke-width="1.5"/>
<path d="M37.4736 20.4531H53.2791V35.0428" stroke="black" stroke-width="1.5"/>
<path d="M37.4736 8.29492H49.6317V20.453" stroke="black" stroke-width="1.5"/>
</svg>

<svg width="59" height="41" fill="none" xmlns="http://www.w3.org/2000/svg"><path d="M58.142 37.474h-23.1V1h-3.648m3.648 35.258H30.18" stroke="#000" stroke-width="1.5"/><path d="M2.215 28.964v-9.727h12.158l4.864 4.864h15.805" stroke="#000" stroke-width="1.5"/><path clip-rule="evenodd" d="M10.726 35.04a4.867 4.867 0 01-4.863 4.866A4.86 4.86 0 011 35.044a4.867 4.867 0 014.863-4.867 4.86 4.86 0 014.863 4.862zm19.454 0a4.866 4.866 0 01-4.864 4.866 4.86 4.86 0 01-4.863-4.862 4.867 4.867 0 014.863-4.867 4.86 4.86 0 014.863 4.862z" stroke="#000" stroke-width="1.5"/><path d="M31.563 24.68S30.15 13.158 21.547 7.079H9.511v12.158m10.942 17.021h-9.727M9.51 7.08H7.08m30.394 13.373h15.805v14.59M37.474 8.295h12.158v12.158" stroke="#000" stroke-width="1.5"/></svg>
